Obsidian/status/16s/remmina-panel.svg

<svg height="16" width="16" xmlns="http://www.w3.org/2000/svg"><path d="m2.2246094 2c-.122-.00233-.2226563.049503-.2226563.1132812v2.2578126c0 .0357779.0309375.0700198.0859375.0917968l5.5527344 2.1660156-5.5527344 2.1660157c-.199.077778-.031828.2423769.2011719.1972656l11.5703125-2.2578125c.16-.031111.189738-.1435989.052734-.1972656l-11.568359-4.515625c-.0352-.013222-.076141-.0207074-.1191406-.0214844zm11.4843746 6.0078125-11.568359 2.2578125c-.16.03111-.191688.1436-.0546875.197266l11.5683595 4.515625c.0352.01322.076139.020714.119141.021484.121999.0023.222656-.0495.222656-.113281v-2.257813c0-.03578-.030938-.070017-.085938-.091797l-5.5527341-2.166015 5.5527341-2.1660159c.199-.077778.03183-.2423769-.201172-.1972656z" fill="#d3dae3" fill-rule="evenodd"/></svg>

<svg xmlns="http://www.w3.org/2000/svg" width="16" height="16" version="1.1">
 <defs>
  <style id="current-color-scheme" type="text/css">
   .ColorScheme-Text { color:#d3dae3; } .ColorScheme-Highlight { color:#5294e2; }
  </style>
 </defs>
 <path style="fill:currentColor;fill-rule:evenodd" class="ColorScheme-Text" d="M 2.2246094 2 C 2.1026094 1.99767 2.0019531 2.049503 2.0019531 2.1132812 L 2.0019531 4.3710938 C 2.0019531 4.4068717 2.0328906 4.4411136 2.0878906 4.4628906 L 7.640625 6.6289062 L 2.0878906 8.7949219 C 1.8888906 8.8726999 2.0560626 9.0372988 2.2890625 8.9921875 L 13.859375 6.734375 C 14.019375 6.703264 14.049113 6.5907761 13.912109 6.5371094 L 2.34375 2.0214844 C 2.30855 2.0082624 2.267609 2.000777 2.2246094 2 z M 13.708984 8.0078125 L 2.140625 10.265625 C 1.980625 10.296735 1.948937 10.409225 2.0859375 10.462891 L 13.654297 14.978516 C 13.689497 14.991736 13.730436 14.99923 13.773438 15 C 13.895437 15.0023 13.996094 14.9505 13.996094 14.886719 L 13.996094 12.628906 C 13.996094 12.593126 13.965156 12.558889 13.910156 12.537109 L 8.3574219 10.371094 L 13.910156 8.2050781 C 14.109156 8.1273001 13.941986 7.9627012 13.708984 8.0078125 z"/>
</svg>
